images/seat3.svg

<svg width="88" height="61" viewBox="0 0 88 61" fill="none" xmlns="http://www.w3.org/2000/svg">
<path fill-rule="evenodd" clip-rule="evenodd" d="M15.8443 11.102H27.3323C29.9409 11.102 32.0749 13.236 32.0749 15.8446V27.3326C32.0749 29.9411 29.9409 32.0751 27.3323 32.0751H15.8443C13.2357 32.0751 11.1017 29.9411 11.1017 27.3326V15.8446C11.1017 13.236 13.2357 11.102 15.8443 11.102ZM6.47385 57.5762C6.47385 59.364 5.02473 60.8131 3.23693 60.8131C1.44912 60.8131 0 59.364 0 57.5762V11.8169C0 8.58891 1.29371 5.64638 3.37758 3.50681C5.48484 1.34329 8.39311 0 11.5933 0H84.0155C85.8033 0 87.2524 1.44912 87.2524 3.23693C87.2524 5.02473 85.8033 6.47385 84.0155 6.47385H11.5933C10.1976 6.47385 8.92703 7.06152 8.00542 8.00792C7.06097 8.97772 6.47385 10.326 6.47385 11.8166V57.5759V57.5762ZM68.2768 11.102H79.7648C82.3734 11.102 84.5074 13.236 84.5074 15.8446V27.3326C84.5074 29.9411 82.3734 32.0751 79.7648 32.0751H68.2768C65.6682 32.0751 63.5342 29.9411 63.5342 27.3326V15.8446C63.5342 13.236 65.6682 11.102 68.2768 11.102ZM42.0605 11.102H53.5485C56.1571 11.102 58.2911 13.236 58.2911 15.8446V27.3326C58.2911 29.9411 56.1571 32.0751 53.5485 32.0751H42.0605C39.4519 32.0751 37.3179 29.9411 37.3179 27.3326V15.8446C37.3179 13.236 39.4519 11.102 42.0605 11.102ZM15.8443 37.3182H27.3323C29.9409 37.3182 32.0749 39.4522 32.0749 42.0608V53.5488C32.0749 56.1574 29.9409 58.2914 27.3323 58.2914H15.8443C13.2357 58.2914 11.1017 56.1574 11.1017 53.5488V42.0608C11.1017 39.4522 13.2357 37.3182 15.8443 37.3182Z" fill="white"/>
</svg>

<svg width="88" height="61" fill="none" xmlns="http://www.w3.org/2000/svg"><path fill-rule="evenodd" clip-rule="evenodd" d="M15.844 11.102h11.488a4.756 4.756 0 014.743 4.743v11.488a4.756 4.756 0 01-4.743 4.742H15.844a4.756 4.756 0 01-4.742-4.742V15.845a4.756 4.756 0 014.742-4.743zm-9.37 46.474a3.237 3.237 0 11-6.474 0v-45.76c0-3.227 1.294-6.17 3.378-8.31C5.485 1.344 8.393 0 11.593 0h72.422a3.237 3.237 0 110 6.474H11.594a5.001 5.001 0 00-3.588 1.534 5.445 5.445 0 00-1.531 3.809v45.759zm61.803-46.474h11.488a4.756 4.756 0 014.742 4.743v11.488a4.756 4.756 0 01-4.742 4.742H68.277a4.756 4.756 0 01-4.743-4.742V15.845a4.756 4.756 0 014.743-4.743zm-26.217 0h11.488a4.756 4.756 0 014.743 4.743v11.488a4.756 4.756 0 01-4.742 4.742H42.06a4.756 4.756 0 01-4.742-4.742V15.845a4.756 4.756 0 014.742-4.743zM15.844 37.318h11.488a4.756 4.756 0 014.743 4.743v11.488a4.756 4.756 0 01-4.743 4.742H15.844a4.756 4.756 0 01-4.742-4.742V42.06a4.756 4.756 0 014.742-4.743z" fill="#fff"/></svg>
